X:1
T:The Reggae Carol
T:The Reggae Carol
%%score 1 { 2 | 3 }
L:1/8
Q:1/4=60
M:2/4
K:C
V:1 treble nm="Soprano" snm="S."
V:2 treble nm="Piano" snm="Pno."
V:3 bass 
V:1
 z4 | z4 | z4 | z2 z"^I" D/"^am"D/ |"^look -" A/"^ing"A"^for"A/"^Je -" B"^sus :"A- | %5
 A/"^I"G/"^have"G/"^to"G/"^find" F"^him,"D- | %6
 D/"^but"E/"^I"E/"^don't"E/ C"^know"E/"^the""^way"G/- | G2 z"^You" D/"^can"D/ | %8
"^see" A/"^all"A"^my"A/"^friends" B"^here"A- | A/"^they're"c/"^com"c/"^ing"c/"^with" A"^me"F | %10
 z/"^we" _B/"^tra"B/"^vel"B/"^night" F"^and"D/"^day."C/- | C4 |"^Show" c z"^me" c z | %13
 z/"^the" c/"^way"c/"^to"c/"^Beth -" _B/"^le-"A/"^hem."F |"^I've" c z"^come" c z | %15
 z/"^straight" _B/"^from"B/"^Je -"B/"^ru -" G/"^sa -"_E/"^lem,"G |"^Show" c z"^me" c z | %17
 z/"^the" c/"^way"c/"^to"c/"^Beth -" _B/"^le -"A/"^hem"F | %18
 z/"^and" _B/"^I"B/"^am"B/"^wil -" G/"^ling"F/"^to"_E/"^pay."F/- | F4- | F2 z2 | %21
 z2 z"^You" D/"^can"D/ |"^fol -" A/"^ow"A"^the"A/"^bright -" B"^est"A- | %23
 A/"^il -"G/"^lum -"G/"^in -"G/"^a -" F"^tion."D- | %24
 D/"^Yes"E/"^you"E/"^can"E/"^see" C"^the"E/"^star"G/- | G3"^You" D/"^will"D/ | %26
"^find" A/"^it"A"^sur -"A/"^pris -" B"^ing :"A- | A/"^he's"c/"^in"c/"^a"c/"^sta -" A"^ble"F | %28
 z/"^with" _B/"^shep -"B/"^herds"B/"^from" F"^a -"D/"^far."C/- | C4 |"^Go" c z"^now" c z | %31
 z/"^and" c/"^on"c/"^to"c/"^Beth -" _B/"^le -"A/"^hem."F |"^Go" c z"^now" c z | %33
 z/"^straight" _B/"^from"B/"^Je -"B/"^ru -" G/"^sa -"_E/"^lem."G |"^Go" c z"^now" c z | %35
 z/"^and" c/"^on"c/"^to"c/"^Beth -" _B/"^le -"A/"^hem,"F | %36
 z/"^make" _B/"^sure"B/"^you're"B/"^wil -" G/"^ling"F/"^to"_E/"^stay."F/- | F4 | z4 | %39
"^Fol -" F2"^low" G"^the"A |"^star" _B2"^with" c"^your"d |"^life's" _E2"^hea -" F"^vy"G | %42
"^load." _B4 |"^You" F2"^will" G"^find"A |"^love" _B2"^at" c"^the"d |"^end" _E2"^of" D"^the"E | %46
"^road.""^road." C4 |"^Im'" c z"^on" c z | %48
 z/"^the" c/"^way"c/"^to"c/"^Beth -" _B/"^le-"A/"^hem."F |"^I've" c z"^come" c z | %50
 z/"^straight" _B/"^from"B/"^Je -"B/"^ru -" G/"^sa -"_E/"^lem."G |"^I'm" c z"^on" c z | %52
 z/"^the" c/"^way"c/"^to"c/"^Beth -" _B/"^le -"A/"^hem"F | %53
 z/"^and" _B/"^I've"B/"^found"B/"^hope" G/"^on"F/"^the"_E/"^way."F/- | F4 | %55
 z/"^and" _B/"^I've"B/"^found"B/"^hope" G/"^on"F/"^the"_E/"^way."F/- | F4 | %57
 z/"^and" _B/"^I've"B/"^found"B/"^hope" G/"^on"F/"^the"_E/"^way."F/- | F4 | z4 |] %60
V:2
 z [Acf]>fc/A/ | z [Ace]>ec/A/ | z [DFA] z [DFA] | z [DGB] z [DGB] | z [DFA] z [DFA] | %5
 z [DGB] z [DGB] | z [CEG] z [CEG] | z [B,DG] z [B,DG] | z [DFA] z [DFA] | z [CFA] z [CFA] | %10
 z [DF_B] z [DFB] | z [CEG] z [CEG] | z [CFA] z [CFA] | z [DF_B] z [DFB] | z [CFA] z [CFA] | %15
 z [_B,_EG] z [B,EG] | z [CFA] z [CFA] | z [DF_B] z [DFB] | z [_B,_EG] z [B,EG] | %19
 z [_B,DF] z [B,DF] | z [CFA] z [CFA] | z [CEA] z [DFA] | z [DFA] z [DFA] | z [DGB] z [DGB] | %24
 z [CEG] z [CEG] | z [B,DG] z [B,DG] | z [DFA] z [DFA] | z [CFA] z [CFA] | z [DF_B] z [DFB] | %29
 z [CEG] z [CEG] | z [CFA] z [CFA] | z [DF_B] z [DFB] | z [CFA] z [CFA] | z [_B,_EG] z [B,EG] | %34
 z [CFA] z [CFA] | z [DF_B] z [DFB] | z [_B,_EG] z [B,EG] | z [_B,DF] z [B,DF] | %38
 z [A,CF] z [A,CF] | z [A,CF]3- | [A,CF][_B,DF]>FD/B,/ | z [_B,_EG]3- | [B,EG][_B,DF]>FD/B,/ | %43
 z [A,CF]3 | z [_B,DF]>FD/B,/ | z [_B,_EG]3- | [B,EG] [_B,=EG]3 | z [CFA] z [CFA] | %48
 z [DF_B] z [DFB] | z [CFA] z [CFA] | z [_B,_EG] z [B,EG] | z [CFA] z [CFA] | z [DF_B] z [DFB] | %53
 z [_B,_EG] z [B,EG] | z [_B,DF] z [B,DF] | z [_B,_EG] z [B,EG] | z [_B,DF] z [B,DF] | %57
 z [_B,_EG] z [B,EG] | z [_B,DF] z [B,DF] | [A,CF]4 |] %60
V:3
 F,,>A,,- A,,/C,/F, | A,,>C,- C,/E,/A, | D,, z D, z | G,,>A,,- A,,/C,/D, | D,, z D, z | %5
 G,,>A,,- A,,/C,/D, | C,4 | z z/ B,,/- B,,/A,,/G,, | D,, z D, z | F,,>A,,- A,,/C,/A,, | %10
 _B,,>D,- D,/F,/D, | C,>E,- E,/G,/E, | F,,4 | F,,4 | F,,4 | F,,4 | F,,4 | F,,4 | F,,4 | F,,4 | %20
 F,,4 | A,,4 | D,, z D, z | G,,>A,,- A,,/C,/D, | C,4 | z z/ B,,/- B,,/A,,/G,, | D,, z D, z | %27
 F,,>A,,- A,,/C,/A,, | _B,,>D,- D,/F,/D, | C,>E,- E,/G,/E, | F,,4 | F,,4 | F,,4 | F,,4 | F,,4 | %35
 F,,4 | F,,4 | F,,4 | F,,4 | F,>C,- C,/A,,F,,/ | _B,,D, F,2 | G,,>_B,,- B,,/G,,_E,,/ | %42
 _B,,,D,, F,,2 | F,>C,- C,/A,,F,,/ | _B,,D, F,2 | G,,>_B,,- B,,/G,,_E,,/ | C,,4 | F,,4 | F,,4 | %49
 F,,4 | F,,4 | F,,4 | F,,4 | F,,4 | F,,4 | F,,4 | F,,4 | F,,4 | F,,4 | F,,4 |] %60

